public/socials/whatsapp.svg

<svg width="30" height="30" viewBox="0 0 30 30" fill="none" xmlns="http://www.w3.org/2000/svg">
<g id="bi:whatsapp" clip-path="url(#clip0_200_604)">
<path id="Vector" d="M25.5019 4.36134C24.1265 2.97324 22.4886 1.87274 20.6837 1.12398C18.8787 0.375216 16.9428 -0.00683301 14.9887 9.24947e-05C6.80062 9.24947e-05 0.1275 6.67134 0.12 14.8613C0.12 17.4845 0.80625 20.0363 2.10188 22.2957L0 30.0001L7.8825 27.9338C10.0631 29.1206 12.5061 29.7426 14.9887 29.7432H14.9963C23.1863 29.7432 29.8575 23.072 29.865 14.8745C29.8669 12.9208 29.4822 10.9861 28.733 9.18174C27.9839 7.37741 26.887 5.73915 25.5019 4.36134ZM14.9887 27.227C12.7744 27.2277 10.6007 26.6318 8.69625 25.502L8.24625 25.232L3.57 26.4582L4.81875 21.8963L4.52625 21.4257C3.28839 19.4576 2.63371 17.1789 2.63812 14.8538C2.63812 8.05509 8.1825 2.50884 14.9963 2.50884C16.6195 2.50593 18.2273 2.82436 19.7269 3.44576C21.2265 4.06717 22.5883 4.97927 23.7337 6.12947C24.8832 7.27518 25.7944 8.63714 26.4149 10.1368C27.0353 11.6364 27.3527 13.2441 27.3488 14.867C27.3413 21.6901 21.7969 27.227 14.9887 27.227ZM21.7669 17.9757C21.3975 17.7901 19.5731 16.892 19.23 16.7645C18.8888 16.6426 18.6394 16.5788 18.3956 16.9501C18.1462 17.3195 17.4338 18.1613 17.22 18.4032C17.0063 18.6526 16.785 18.6807 16.4137 18.497C16.0444 18.3095 14.8463 17.9195 13.4288 16.6501C12.3225 15.6657 11.5819 14.447 11.3606 14.0776C11.1469 13.7063 11.34 13.5076 11.5256 13.322C11.6887 13.157 11.895 12.887 12.0806 12.6732C12.2681 12.4595 12.33 12.302 12.4519 12.0545C12.5737 11.8032 12.5156 11.5895 12.4237 11.4038C12.33 11.2182 11.5894 9.38634 11.2762 8.64759C10.9762 7.91822 10.6706 8.01947 10.4419 8.01009C10.2281 7.99697 9.97875 7.99697 9.72937 7.99697C9.54106 8.00165 9.35574 8.0452 9.18505 8.1249C9.01436 8.2046 8.86199 8.31872 8.7375 8.46009C8.39625 8.83134 7.44187 9.72947 7.44187 11.5613C7.44187 13.3932 8.77312 15.1538 8.96062 15.4032C9.14437 15.6526 11.5744 19.4007 15.3037 21.0132C16.185 21.3976 16.8787 21.6245 17.4206 21.797C18.3113 22.082 19.1156 22.0388 19.7569 21.947C20.4694 21.8382 21.9525 21.047 22.2656 20.1788C22.5731 19.3088 22.5731 18.5663 22.4794 18.4107C22.3875 18.2532 22.1381 18.1613 21.7669 17.9757Z" fill="#34D186"/>
</g>
<defs>
<clipPath id="clip0_200_604">
<rect width="30" height="30" fill="white"/>
</clipPath>
</defs>
</svg>

<svg width="30" height="30" fill="none" xmlns="http://www.w3.org/2000/svg"><g clip-path="url(#a)"><path d="M25.502 4.361A14.727 14.727 0 0 0 14.989.001C6.8 0 .127 6.67.12 14.86c0 2.623.686 5.175 1.982 7.435L0 30l7.883-2.066a14.873 14.873 0 0 0 7.106 1.81h.007c8.19 0 14.862-6.672 14.869-14.87a14.807 14.807 0 0 0-4.363-10.513zM14.989 27.227c-2.215 0-4.388-.595-6.293-1.725l-.45-.27-4.676 1.226 1.249-4.562-.293-.47a12.3 12.3 0 0 1-1.888-6.572c0-6.799 5.544-12.345 12.358-12.345a12.3 12.3 0 0 1 8.738 3.62 12.294 12.294 0 0 1 3.615 8.738c-.008 6.823-5.552 12.36-12.36 12.36zm6.778-9.251c-.37-.186-2.194-1.084-2.537-1.211-.341-.122-.59-.186-.834.185-.25.37-.962 1.211-1.176 1.453-.214.25-.435.278-.806.094-.37-.188-1.568-.578-2.985-1.847-1.107-.984-1.847-2.203-2.068-2.572-.214-.372-.021-.57.165-.756.163-.165.369-.435.555-.649.187-.213.249-.371.37-.618.123-.252.065-.466-.027-.651-.094-.186-.835-2.018-1.148-2.756-.3-.73-.605-.629-.834-.638-.214-.013-.463-.013-.713-.013a1.367 1.367 0 0 0-.991.463c-.342.371-1.296 1.27-1.296 3.101 0 1.832 1.331 3.593 1.519 3.842.183.25 2.613 3.998 6.343 5.61.881.385 1.575.611 2.117.784.89.285 1.695.242 2.336.15.712-.109 2.195-.9 2.509-1.768.307-.87.307-1.613.213-1.768-.091-.158-.34-.25-.712-.435z" fill="#34D186"/></g><defs><clipPath id="a"><path fill="#fff" d="M0 0h30v30H0z"/></clipPath></defs></svg>
